icons/modern/credit-card.svg

<svg width="32" height="32" viewBox="0 0 32 32" fill="none" xmlns="http://www.w3.org/2000/svg">
<g filter="url(#filter0_iii_18_21638)">
<rect x="2.03125" y="11.9688" width="27.9375" height="17.9062" rx="2.25" fill="url(#paint0_linear_18_21638)"/>
</g>
<path d="M2.03125 17.9688V14.8438H29.9688V17.9688H2.03125Z" fill="url(#paint1_linear_18_21638)"/>
<path d="M2.03125 17.9688V14.8438H29.9688V17.9688H2.03125Z" fill="url(#paint2_linear_18_21638)"/>
<path d="M2.03125 17.9688V14.8438H29.9688V17.9688H2.03125Z" fill="url(#paint3_linear_18_21638)"/>
<g filter="url(#filter1_dii_18_21638)">
<path d="M5.71875 23.9688C5.30454 23.9688 4.96875 23.633 4.96875 23.2188V20.7188C4.96875 20.3045 5.30454 19.9688 5.71875 19.9688H23C23.4142 19.9688 23.75 20.3045 23.75 20.7188V23.2188C23.75 23.633 23.4142 23.9688 23 23.9688H5.71875Z" fill="#E2DDDE"/>
</g>
<g filter="url(#filter2_dii_18_21638)">
<rect x="6.0625" y="21.5" width="11.8125" height="1" rx="0.5" fill="url(#paint4_linear_18_21638)"/>
</g>
<g filter="url(#filter3_dii_18_21638)">
<rect x="24.375" y="24.3125" width="3.53125" height="3.53125" rx="0.75" fill="url(#paint5_linear_18_21638)"/>
</g>
<defs>
<filter id="filter0_iii_18_21638" x="1.63125" y="11.5687" width="28.7375" height="18.7063" filterUnits="userSpaceOnUse" color-interpolation-filters="sRGB">
<feFlood flood-opacity="0" result="BackgroundImageFix"/>
<feBlend mode="normal" in="SourceGraphic" in2="BackgroundImageFix" result="shape"/>
<feColorMatrix in="SourceAlpha" type="matrix" values="0 0 0 0 0 0 0 0 0 0 0 0 0 0 0 0 0 0 127 0" result="hardAlpha"/>
<feOffset dx="0.4" dy="-0.4"/>
<feGaussianBlur stdDeviation="0.375"/>
<feComposite in2="hardAlpha" operator="arithmetic" k2="-1" k3="1"/>
<feColorMatrix type="matrix" values="0 0 0 0 0.254902 0 0 0 0 0.580392 0 0 0 0 0.764706 0 0 0 1 0"/>
<feBlend mode="normal" in2="shape" result="effect1_innerShadow_18_21638"/>
<feColorMatrix in="SourceAlpha" type="matrix" values="0 0 0 0 0 0 0 0 0 0 0 0 0 0 0 0 0 0 127 0" result="hardAlpha"/>
<feOffset dy="-0.4"/>
<feGaussianBlur stdDeviation="0.375"/>
<feComposite in2="hardAlpha" operator="arithmetic" k2="-1" k3="1"/>
<feColorMatrix type="matrix" values="0 0 0 0 0.223529 0 0 0 0 0.419608 0 0 0 0 0.639216 0 0 0 1 0"/>
<feBlend mode="normal" in2="effect1_innerShadow_18_21638" result="effect2_innerShadow_18_21638"/>
<feColorMatrix in="SourceAlpha" type="matrix" values="0 0 0 0 0 0 0 0 0 0 0 0 0 0 0 0 0 0 127 0" result="hardAlpha"/>
<feOffset dx="-0.4" dy="0.4"/>
<feGaussianBlur stdDeviation="0.375"/>
<feComposite in2="hardAlpha" operator="arithmetic" k2="-1" k3="1"/>
<feColorMatrix type="matrix" values="0 0 0 0 0.380392 0 0 0 0 0.929412 0 0 0 0 1 0 0 0 1 0"/>
<feBlend mode="normal" in2="effect2_innerShadow_18_21638" result="effect3_innerShadow_18_21638"/>
</filter>
<filter id="filter1_dii_18_21638" x="4.66875" y="19.8687" width="19.1813" height="4.4" filterUnits="userSpaceOnUse" color-interpolation-filters="sRGB">
<feFlood flood-opacity="0" result="BackgroundImageFix"/>
<feColorMatrix in="SourceAlpha" type="matrix" values="0 0 0 0 0 0 0 0 0 0 0 0 0 0 0 0 0 0 127 0" result="hardAlpha"/>
<feOffset dx="-0.1" dy="0.1"/>
<feGaussianBlur stdDeviation="0.1"/>
<feComposite in2="hardAlpha" operator="out"/>
<feColorMatrix type="matrix" values="0 0 0 0 0.211765 0 0 0 0 0.580392 0 0 0 0 0.807843 0 0 0 1 0"/>
<feBlend mode="normal" in2="BackgroundImageFix" result="effect1_dropShadow_18_21638"/>
<feBlend mode="normal" in="SourceGraphic" in2="effect1_dropShadow_18_21638" result="shape"/>
<feColorMatrix in="SourceAlpha" type="matrix" values="0 0 0 0 0 0 0 0 0 0 0 0 0 0 0 0 0 0 127 0" result="hardAlpha"/>
<feOffset dx="0.1" dy="-0.1"/>
<feGaussianBlur stdDeviation="0.075"/>
<feComposite in2="hardAlpha" operator="arithmetic" k2="-1" k3="1"/>
<feColorMatrix type="matrix" values="0 0 0 0 0.788235 0 0 0 0 0.764706 0 0 0 0 0.784314 0 0 0 1 0"/>
<feBlend mode="normal" in2="shape" result="effect2_innerShadow_18_21638"/>
<feColorMatrix in="SourceAlpha" type="matrix" values="0 0 0 0 0 0 0 0 0 0 0 0 0 0 0 0 0 0 127 0" result="hardAlpha"/>
<feOffset dx="-0.1" dy="0.1"/>
<feGaussianBlur stdDeviation="0.075"/>
<feComposite in2="hardAlpha" operator="arithmetic" k2="-1" k3="1"/>
<feColorMatrix type="matrix" values="0 0 0 0 0.921569 0 0 0 0 0.92549 0 0 0 0 0.92549 0 0 0 1 0"/>
<feBlend mode="normal" in2="effect2_innerShadow_18_21638" result="effect3_innerShadow_18_21638"/>
</filter>
<filter id="filter2_dii_18_21638" x="5.9625" y="21.4" width="12.0125" height="1.3" filterUnits="userSpaceOnUse" color-interpolation-filters="sRGB">
<feFlood flood-opacity="0" result="BackgroundImageFix"/>
<feColorMatrix in="SourceAlpha" type="matrix" values="0 0 0 0 0 0 0 0 0 0 0 0 0 0 0 0 0 0 127 0" result="hardAlpha"/>
<feOffset dy="0.1"/>
<feGaussianBlur stdDeviation="0.05"/>
<feComposite in2="hardAlpha" operator="out"/>
<feColorMatrix type="matrix" values="0 0 0 0 0.819608 0 0 0 0 0.788235 0 0 0 0 0.792157 0 0 0 1 0"/>
<feBlend mode="normal" in2="BackgroundImageFix" result="effect1_dropShadow_18_21638"/>
<feBlend mode="normal" in="SourceGraphic" in2="effect1_dropShadow_18_21638" result="shape"/>
<feColorMatrix in="SourceAlpha" type="matrix" values="0 0 0 0 0 0 0 0 0 0 0 0 0 0 0 0 0 0 127 0" result="hardAlpha"/>
<feOffset dy="-0.1"/>
<feGaussianBlur stdDeviation="0.05"/>
<feComposite in2="hardAlpha" operator="arithmetic" k2="-1" k3="1"/>
<feColorMatrix type="matrix" values="0 0 0 0 0.615686 0 0 0 0 0.592157 0 0 0 0 0.592157 0 0 0 1 0"/>
<feBlend mode="normal" in2="shape" result="effect2_innerShadow_18_21638"/>
<feColorMatrix in="SourceAlpha" type="matrix" values="0 0 0 0 0 0 0 0 0 0 0 0 0 0 0 0 0 0 127 0" result="hardAlpha"/>
<feOffset dy="0.1"/>
<feGaussianBlur stdDeviation="0.05"/>
<feComposite in2="hardAlpha" operator="arithmetic" k2="-1" k3="1"/>
<feColorMatrix type="matrix" values="0 0 0 0 0.670588 0 0 0 0 0.662745 0 0 0 0 0.662745 0 0 0 1 0"/>
<feBlend mode="normal" in2="effect2_innerShadow_18_21638" result="effect3_innerShadow_18_21638"/>
</filter>
<filter id="filter3_dii_18_21638" x="23.875" y="24.1125" width="4.13125" height="4.13125" filterUnits="userSpaceOnUse" color-interpolation-filters="sRGB">
<feFlood flood-opacity="0" result="BackgroundImageFix"/>
<feColorMatrix in="SourceAlpha" type="matrix" values="0 0 0 0 0 0 0 0 0 0 0 0 0 0 0 0 0 0 127 0" result="hardAlpha"/>
<feOffset dx="-0.2" dy="0.1"/>
<feGaussianBlur stdDeviation="0.15"/>
<feComposite in2="hardAlpha" operator="out"/>
<feColorMatrix type="matrix" values="0 0 0 0 0.2 0 0 0 0 0.596078 0 0 0 0 0.835294 0 0 0 1 0"/>
<feBlend mode="normal" in2="BackgroundImageFix" result="effect1_dropShadow_18_21638"/>
<feBlend mode="normal" in="SourceGraphic" in2="effect1_dropShadow_18_21638" result="shape"/>
<feColorMatrix in="SourceAlpha" type="matrix" values="0 0 0 0 0 0 0 0 0 0 0 0 0 0 0 0 0 0 127 0" result="hardAlpha"/>
<feOffset dx="-0.1" dy="0.1"/>
<feGaussianBlur stdDeviation="0.2"/>
<feComposite in2="hardAlpha" operator="arithmetic" k2="-1" k3="1"/>
<feColorMatrix type="matrix" values="0 0 0 0 0.996078 0 0 0 0 0.905882 0 0 0 0 0.309804 0 0 0 1 0"/>
<feBlend mode="normal" in2="shape" result="effect2_innerShadow_18_21638"/>
<feColorMatrix in="SourceAlpha" type="matrix" values="0 0 0 0 0 0 0 0 0 0 0 0 0 0 0 0 0 0 127 0" result="hardAlpha"/>
<feOffset dx="0.1" dy="-0.1"/>
<feGaussianBlur stdDeviation="0.2"/>
<feComposite in2="hardAlpha" operator="arithmetic" k2="-1" k3="1"/>
<feColorMatrix type="matrix" values="0 0 0 0 0.870588 0 0 0 0 0.694118 0 0 0 0 0.2 0 0 0 1 0"/>
<feBlend mode="normal" in2="effect2_innerShadow_18_21638" result="effect3_innerShadow_18_21638"/>
</filter>
<linearGradient id="paint0_linear_18_21638" x1="16" y1="11.9688" x2="16" y2="29.0625" gradientUnits="userSpaceOnUse">
<stop stop-color="#57D8F2"/>
<stop offset="1" stop-color="#36A3E7"/>
</linearGradient>
<linearGradient id="paint1_linear_18_21638" x1="2.03125" y1="17.0625" x2="29.9687" y2="17.0625" gradientUnits="userSpaceOnUse">
<stop stop-color="#5D476D"/>
<stop offset="0.880313" stop-color="#3D3B3B"/>
</linearGradient>
<linearGradient id="paint2_linear_18_21638" x1="2.03125" y1="16.7936" x2="3.53474" y2="16.7936" gradientUnits="userSpaceOnUse">
<stop offset="0.239027" stop-color="#513E5F"/>
<stop offset="0.706688" stop-color="#513E5F" stop-opacity="0"/>
</linearGradient>
<linearGradient id="paint3_linear_18_21638" x1="29.9688" y1="16.9375" x2="29.2813" y2="16.9375" gradientUnits="userSpaceOnUse">
<stop offset="0.328127" stop-color="#474646"/>
<stop offset="1" stop-color="#474646" stop-opacity="0"/>
</linearGradient>
<linearGradient id="paint4_linear_18_21638" x1="6.0625" y1="22" x2="16.9375" y2="22" gradientUnits="userSpaceOnUse">
<stop stop-color="#A5A0A1"/>
<stop offset="1" stop-color="#A6A2A2"/>
</linearGradient>
<linearGradient id="paint5_linear_18_21638" x1="27.9063" y1="25.7188" x2="25.0313" y2="25.7188" gradientUnits="userSpaceOnUse">
<stop stop-color="#F9D940"/>
<stop offset="1" stop-color="#EAC037"/>
</linearGradient>
</defs>
</svg>

<svg width="32" height="32" fill="none" xmlns="http://www.w3.org/2000/svg"><g filter="url(#a)"><rect x="2.031" y="11.969" width="27.938" height="17.906" rx="2.25" fill="url(#b)"/></g><path d="M2.031 17.969v-3.125H29.97v3.125H2.03Z" fill="url(#c)"/><path d="M2.031 17.969v-3.125H29.97v3.125H2.03Z" fill="url(#d)"/><path d="M2.031 17.969v-3.125H29.97v3.125H2.03Z" fill="url(#e)"/><g filter="url(#f)"><path d="M5.719 23.969a.75.75 0 0 1-.75-.75v-2.5a.75.75 0 0 1 .75-.75H23a.75.75 0 0 1 .75.75v2.5a.75.75 0 0 1-.75.75H5.719Z" fill="#E2DDDE"/></g><g filter="url(#g)"><rect x="6.063" y="21.5" width="11.813" height="1" rx=".5" fill="url(#h)"/></g><g filter="url(#i)"><rect x="24.375" y="24.313" width="3.531" height="3.531" rx=".75" fill="url(#j)"/></g><defs><linearGradient id="b" x1="16" y1="11.969" x2="16" y2="29.063" gradientUnits="userSpaceOnUse"><stop stop-color="#57D8F2"/><stop offset="1" stop-color="#36A3E7"/></linearGradient><linearGradient id="c" x1="2.031" y1="17.063" x2="29.969" y2="17.063" gradientUnits="userSpaceOnUse"><stop stop-color="#5D476D"/><stop offset=".88" stop-color="#3D3B3B"/></linearGradient><linearGradient id="d" x1="2.031" y1="16.794" x2="3.535" y2="16.794" gradientUnits="userSpaceOnUse"><stop offset=".239" stop-color="#513E5F"/><stop offset=".707" stop-color="#513E5F" stop-opacity="0"/></linearGradient><linearGradient id="e" x1="29.969" y1="16.938" x2="29.281" y2="16.938" gradientUnits="userSpaceOnUse"><stop offset=".328" stop-color="#474646"/><stop offset="1" stop-color="#474646" stop-opacity="0"/></linearGradient><linearGradient id="h" x1="6.063" y1="22" x2="16.938" y2="22" gradientUnits="userSpaceOnUse"><stop stop-color="#A5A0A1"/><stop offset="1" stop-color="#A6A2A2"/></linearGradient><linearGradient id="j" x1="27.906" y1="25.719" x2="25.031" y2="25.719" gradientUnits="userSpaceOnUse"><stop stop-color="#F9D940"/><stop offset="1" stop-color="#EAC037"/></linearGradient><filter id="a" x="1.631" y="11.569" width="28.738" height="18.706" filterUnits="userSpaceOnUse" color-interpolation-filters="sRGB"><feFlood flood-opacity="0" result="BackgroundImageFix"/><feBlend in="SourceGraphic" in2="BackgroundImageFix" result="shape"/><feColorMatrix in="SourceAlpha" values="0 0 0 0 0 0 0 0 0 0 0 0 0 0 0 0 0 0 127 0" result="hardAlpha"/><feOffset dx=".4" dy="-.4"/><feGaussianBlur stdDeviation=".375"/><feComposite in2="hardAlpha" operator="arithmetic" k2="-1" k3="1"/><feColorMatrix values="0 0 0 0 0.254902 0 0 0 0 0.580392 0 0 0 0 0.764706 0 0 0 1 0"/><feBlend in2="shape" result="effect1_innerShadow_18_21638"/><feColorMatrix in="SourceAlpha" values="0 0 0 0 0 0 0 0 0 0 0 0 0 0 0 0 0 0 127 0" result="hardAlpha"/><feOffset dy="-.4"/><feGaussianBlur stdDeviation=".375"/><feComposite in2="hardAlpha" operator="arithmetic" k2="-1" k3="1"/><feColorMatrix values="0 0 0 0 0.223529 0 0 0 0 0.419608 0 0 0 0 0.639216 0 0 0 1 0"/><feBlend in2="effect1_innerShadow_18_21638" result="effect2_innerShadow_18_21638"/><feColorMatrix in="SourceAlpha" values="0 0 0 0 0 0 0 0 0 0 0 0 0 0 0 0 0 0 127 0" result="hardAlpha"/><feOffset dx="-.4" dy=".4"/><feGaussianBlur stdDeviation=".375"/><feComposite in2="hardAlpha" operator="arithmetic" k2="-1" k3="1"/><feColorMatrix values="0 0 0 0 0.380392 0 0 0 0 0.929412 0 0 0 0 1 0 0 0 1 0"/><feBlend in2="effect2_innerShadow_18_21638" result="effect3_innerShadow_18_21638"/></filter><filter id="f" x="4.669" y="19.869" width="19.181" height="4.4" filterUnits="userSpaceOnUse" color-interpolation-filters="sRGB"><feFlood flood-opacity="0" result="BackgroundImageFix"/><feColorMatrix in="SourceAlpha" values="0 0 0 0 0 0 0 0 0 0 0 0 0 0 0 0 0 0 127 0" result="hardAlpha"/><feOffset dx="-.1" dy=".1"/><feGaussianBlur stdDeviation=".1"/><feComposite in2="hardAlpha" operator="out"/><feColorMatrix values="0 0 0 0 0.211765 0 0 0 0 0.580392 0 0 0 0 0.807843 0 0 0 1 0"/><feBlend in2="BackgroundImageFix" result="effect1_dropShadow_18_21638"/><feBlend in="SourceGraphic" in2="effect1_dropShadow_18_21638" result="shape"/><feColorMatrix in="SourceAlpha" values="0 0 0 0 0 0 0 0 0 0 0 0 0 0 0 0 0 0 127 0" result="hardAlpha"/><feOffset dx=".1" dy="-.1"/><feGaussianBlur stdDeviation=".075"/><feComposite in2="hardAlpha" operator="arithmetic" k2="-1" k3="1"/><feColorMatrix values="0 0 0 0 0.788235 0 0 0 0 0.764706 0 0 0 0 0.784314 0 0 0 1 0"/><feBlend in2="shape" result="effect2_innerShadow_18_21638"/><feColorMatrix in="SourceAlpha" values="0 0 0 0 0 0 0 0 0 0 0 0 0 0 0 0 0 0 127 0" result="hardAlpha"/><feOffset dx="-.1" dy=".1"/><feGaussianBlur stdDeviation=".075"/><feComposite in2="hardAlpha" operator="arithmetic" k2="-1" k3="1"/><feColorMatrix values="0 0 0 0 0.921569 0 0 0 0 0.92549 0 0 0 0 0.92549 0 0 0 1 0"/><feBlend in2="effect2_innerShadow_18_21638" result="effect3_innerShadow_18_21638"/></filter><filter id="g" x="5.963" y="21.4" width="12.012" height="1.3" filterUnits="userSpaceOnUse" color-interpolation-filters="sRGB"><feFlood flood-opacity="0" result="BackgroundImageFix"/><feColorMatrix in="SourceAlpha" values="0 0 0 0 0 0 0 0 0 0 0 0 0 0 0 0 0 0 127 0" result="hardAlpha"/><feOffset dy=".1"/><feGaussianBlur stdDeviation=".05"/><feComposite in2="hardAlpha" operator="out"/><feColorMatrix values="0 0 0 0 0.819608 0 0 0 0 0.788235 0 0 0 0 0.792157 0 0 0 1 0"/><feBlend in2="BackgroundImageFix" result="effect1_dropShadow_18_21638"/><feBlend in="SourceGraphic" in2="effect1_dropShadow_18_21638" result="shape"/><feColorMatrix in="SourceAlpha" values="0 0 0 0 0 0 0 0 0 0 0 0 0 0 0 0 0 0 127 0" result="hardAlpha"/><feOffset dy="-.1"/><feGaussianBlur stdDeviation=".05"/><feComposite in2="hardAlpha" operator="arithmetic" k2="-1" k3="1"/><feColorMatrix values="0 0 0 0 0.615686 0 0 0 0 0.592157 0 0 0 0 0.592157 0 0 0 1 0"/><feBlend in2="shape" result="effect2_innerShadow_18_21638"/><feColorMatrix in="SourceAlpha" values="0 0 0 0 0 0 0 0 0 0 0 0 0 0 0 0 0 0 127 0" result="hardAlpha"/><feOffset dy=".1"/><feGaussianBlur stdDeviation=".05"/><feComposite in2="hardAlpha" operator="arithmetic" k2="-1" k3="1"/><feColorMatrix values="0 0 0 0 0.670588 0 0 0 0 0.662745 0 0 0 0 0.662745 0 0 0 1 0"/><feBlend in2="effect2_innerShadow_18_21638" result="effect3_innerShadow_18_21638"/></filter><filter id="i" x="23.875" y="24.113" width="4.131" height="4.131" filterUnits="userSpaceOnUse" color-interpolation-filters="sRGB"><feFlood flood-opacity="0" result="BackgroundImageFix"/><feColorMatrix in="SourceAlpha" values="0 0 0 0 0 0 0 0 0 0 0 0 0 0 0 0 0 0 127 0" result="hardAlpha"/><feOffset dx="-.2" dy=".1"/><feGaussianBlur stdDeviation=".15"/><feComposite in2="hardAlpha" operator="out"/><feColorMatrix values="0 0 0 0 0.2 0 0 0 0 0.596078 0 0 0 0 0.835294 0 0 0 1 0"/><feBlend in2="BackgroundImageFix" result="effect1_dropShadow_18_21638"/><feBlend in="SourceGraphic" in2="effect1_dropShadow_18_21638" result="shape"/><feColorMatrix in="SourceAlpha" values="0 0 0 0 0 0 0 0 0 0 0 0 0 0 0 0 0 0 127 0" result="hardAlpha"/><feOffset dx="-.1" dy=".1"/><feGaussianBlur stdDeviation=".2"/><feComposite in2="hardAlpha" operator="arithmetic" k2="-1" k3="1"/><feColorMatrix values="0 0 0 0 0.996078 0 0 0 0 0.905882 0 0 0 0 0.309804 0 0 0 1 0"/><feBlend in2="shape" result="effect2_innerShadow_18_21638"/><feColorMatrix in="SourceAlpha" values="0 0 0 0 0 0 0 0 0 0 0 0 0 0 0 0 0 0 127 0" result="hardAlpha"/><feOffset dx=".1" dy="-.1"/><feGaussianBlur stdDeviation=".2"/><feComposite in2="hardAlpha" operator="arithmetic" k2="-1" k3="1"/><feColorMatrix values="0 0 0 0 0.870588 0 0 0 0 0.694118 0 0 0 0 0.2 0 0 0 1 0"/><feBlend in2="effect2_innerShadow_18_21638" result="effect3_innerShadow_18_21638"/></filter></defs></svg>
